X: 20305
T: John Brady's
R: hornpipe
M: 4/4
K: Gmajor
(3def|:gG ~G2 DGBd|GBdg bgdc|A=FAc fefg|a2 (3g=fe dGBd|
gG ~G2 DGBd|GBdg bgdc|A=FAc =f^FAc|AG (3AGF G2:|
(3Bc^c|:dg ~g2 bgdc|A=FAc fc (3ABc|BGBd gdBd|(3gba (3gfe d2 (3Bc^c|
dg ~g2 bgdc|A=FAc fc (3ABc|BG=FA d^FAc|AG (3AGF G2:|

